!!!ONB: MCCC : IJH0446_01 : Extracted Monophonic Melody
!!!COM: Haydn, Joseph
!!!OPR: String Quartet in E-flat major
!!!OMV: 1
!!!SCT: Hob.III:38 ; Op.33 No.2
!!!ODT: 1781///
**kern
*thru
*k[b-e-a-]
*E-:
*clefG
*M4/4
16B-
16e-
=1
2e-
4.b-
16a-
16f
=2
8e-
8g
8b-
16ee-
16b-
4.b-
8b
=3
2cc
4.a-
16f
16d
=4
8e-
8g
8b-
16a-
16f
4e-
8r
16B-
16e-
=5
8e-
16B-
16f
8f
16B-
16g
8g
4r
16B-
16g
=6
8g
16B-
16a-
8a-
16B-
16b-
8b-
4r
16b-
16bb-
=7
16bb-
16aa-
16b-
16aa-
16aa-
16gg
16b-
16bb-
16bb-
16aa-
16b-
16aa-
16aa-
16gg
16cc
16ccc
=8
8.ccc
16gg
8aa-
16gg
16ff
4ee-
8dd
16B-
16e-
=9
2e-
4.b-
16a-
16f
=10
8e-
8g
8b-
16ee-
16b-
4.b-
8b
=11
2cc
4.a-
16f
16d
=12
8e-
8g
8b-
16a-
16f
4e-
8r
16b-
16gg
=13
2gg
4.aa-
8b
=14
8cc
8ee-
8gg
16ee-
16cc
4b-
4a
=15
8b-
8dd
8ff
16dd
16b
8cc
8ee-
8gg
16ee-
16cc
=16
8dd
8ff
8bb-
16ff
16dd
8ee
8gg
8bb-
16gg
16ee
=17
8ff
16cc
16a
8ff
16ee
16cc
8ff
16cc
16a
8ff
16ee
16cc
=18
8ff
16cc
16a
8ff
16dd
16b-
8ff
16ee-
16cc
8ff
16dd
16b-
=19
4.f
16f#
16g
4.g
16ee-
16cc
=20
4b-
8a
8b-
8.cc
16dd
8ee-
16f
16b-
=21
8b-
8b-
8b-
16cc
16a
8b-
8dd
8dd
16ee-
16cc
=22
8dd
8ff
8ff
16gg
16ee-
8ff
8bb-
8bb-
8bb-
=23
8.ddd
16ccc
16bb-
16aa-
16gg
16ff
8ff
16ee
16r
8gg
16ff
16r
=24
8ccc
16ee-
16r
8ee-
16dd
16r
8ff#
16gg
16r
8aa
16bb-
16r
=25
24f
24b-
24a
24cc
24b-
24dd
24cc
24ee-
24dd
24ff
24ee-
24gg
24ff
24bb-
24aa
24gg
24ff
24ee-
24dd
24cc
24b-
24a
24g
24f
=26
24e
24e
24e
24e
24e
24e
24e-
24e-
24e-
24e-
24e-
24e-
24d
24f
24b-
24dd
24ff
24aa
8bb-
8ff#
=27
16gg
16r
8bb
16ccc
16r
16eee-
16ccc
24bb-
24ddd
24fff
24fff
24fff
24fff
24fff
24ddd
24bb-
24fff
24ddd
24bb-
=28
4ff
4ccc
2bb-[
=29
2..bb-]
16ff
16dd
=30
8gg
16ee-
16cc
8ee-
16cc
16a
2b-[
=31
2..b-]
16b
16cc
=32
8cc
16cc
16ee-
8ee-
16f
16b-
4b-
4r
=33
2..r
16b-
16ee-
=34
8ee-
16b-
16ff
8ff
16b-
16gg
8gg
4r
16ee-
16aa-
=35
2aa-
4.eee-
16ddd-
16bb-
=36
2ccc
8bb-
16b-
16dd-
8bb-
8bb-
=37
2aa-
4.gg
16cc
16ff
=38
2ff
4.ccc
16bb-
16gg
=39
4aa-
4aa
4.bb-
16aa-
16ff
=40
4gg
3..r
24r
16b-
16ee-
=41
2ee-
4.bb-
16aa-
16ff
=42
8ee-
8gg
8bb-
16eee-
16bb-
4.bb-
16ddd-
16ccc
=43
4.ccc
16ccc-
16bb-
4.bb-
16bb-
16aa
=44
8aa
16aa
16aa-
8aa-
16aa-
16gg
8gg
16b-
16gg-
4gg-[
=45
4.gg-]
16gg-
16aa-
2aa-[
=46
8aa-]
16ff
16gg-
4.gg-
16ee-
16ff
8ff
8gg
=47
3..aa-[
24aa-]
16ff
16gg-
8gg-
8aa
=48
3..bb-[
24bb-]
16gg
16aa-
8aa-
8bb
=49
4.ccc
16ee
16ddd-
8ddd-
16ff
16ccc
8ccc
16dd-
16bb-
=50
4bb-
4r
8aa-
8r
8ee
8r
=51
1ff
=52
1ff#
=53
2gg
2aa
=54
8gg
16dd
16b
8ff#
16ee-
16cc
8gg
16dd
16b
8ff#
16ee-
16cc
=55
8gg
16dd
16b
8gg
16ee-
16cc
8gg
16ff
16dd
8gg
16ee-
16cc
=56
8gg
16dd
16b
8gg
16ee-
16cc
24aa-
24gg
24ff
24ee-
24dd
24cc
24b
24a-
24g
24f
24e-
24d
=57
24c
24B
24A-
24G
24B
24d
24f
24e-
24d
24a-
24g
24f
24e-
24g
24cc
24a-
24f
24d
24g
24e-
24c
24f
24d
24B
=58
8c
8a-
8g
8B
4.r
16G
16c
=59
2c
4.g
16f
16d
=60
8c
8e-
8g
16cc
16g
4.g
16cc
16f
=61
4.f
16b
16f
4.f
16b
16f
=62
8f
16b
16f
8f
16b
16f
4f
8r
16B-
16e-
=63
2e-
4.b-
16a-
16f
=64
8e-
8g
8b-
16ee-
16b-
4.b-
8b
=65
2cc
4.a-
16f
16d
=66
8e-
8g
8b-
16a-
16f
4e-
8r
16B-
16e-
=67
8e-
16B-
16f
8f
16B-
16g
4g
8r
16B-
16g
=68
8g
16B-
16a-
8a-
16B-
16b-
4b-
8r
16b-
16bb-
=69
16bb-
16aa-
16b-
16aa-
16aa-
16gg
16b-
16bb-
16bb-
16aa-
16b-
16aa-
16aa-
16gg
8bb-
=70
4ccc
4bb-
4aa-
4gg
=71
4ff
8gg-
16ff
16ee-
8dd
8ff
8aa-
16ff
16dd
=72
8ee-
8gg
8bb-
16gg
16ee
8ff
8aa-
8ccc
16aa-
16ff
=73
8gg
8bb-
8eee-
16bb-
16gg
8aa
8ccc
8eee-
16ccc
16aa
=74
8bb-
16ff
16dd
8bb-
16aa
16ff
8bb-
16ff
16dd
8bb-
16aa
16ff
=75
8bb-
16ff
16dd
8bb-
16gg
16ee-
8bb-
16aa-
16ff
8bb-
16gg
16ee-
=76
4.b-
16b
16cc
4.cc
16aa-
16ff
=77
4ee-
8dd
8ee-
8.ff
16gg
8aa-
16b-
16ee-
=78
8ee-
8ee-
8ee-
16ff
16dd
8ee-
8gg
8gg
16aa-
16ff
=79
8gg
8bb-
8bb-
16ccc
16aa-
8bb-
8ddd-
8ddd-
8ddd-
=80
4ddd-
4r
8bb
16ccc
16r
8gg
16aa-
16r
=81
8ee
16ff
16r
8gg
16aa-
16r
8aa
16bb-
16r
8ff#
16gg
16r
=82
8dd
16ee-
16r
8ff
16gg
16r
8.aa-
16ff
16ee-
16dd
16cc
16b-
=83
16a-
16g
16f
16e-
16d
16c
16B-
16A-
24G
24e-
24d
24f
24e-
24g
24f
24a-
24g
24b-
24a-
24cc
=84
24b-
24ee-
24dd
24ee-
24gg
24ff
24ee-
24dd
24cc
24b-
24a-
24g
24f
24a-
24cc
24cc
24cc
24cc
24cc
24ff
24aa-
24aa-
24aa-
24aa-
=85
24ff
24aa-
24ccc
24ccc
24ccc
24ccc
24aa
24ccc
24eee-
24eee-
24eee-
24eee-
8.eee-
16bb-
24eee-
24bb-
24gg
24bb-
24gg
24ee-
=86
4b-
4ff
2ee-[
=87
2..ee-]
16ee-
16b-
=88
8cc
16cc
16f
8a-
16a-
16d
2e-[
=89
2..e-]
16e
16f
=90
8f
16f
16a-
8a-
16B-
16e-
4e-
4r
==
*-
